icons/settings.svg

<svg width="24" height="24" viewBox="0 0 24 24" fill="none" xmlns="http://www.w3.org/2000/svg">
<path d="M13.9445 10.0555C14.4603 10.5712 14.75 11.2707 14.75 12C14.75 12.7293 14.4603 13.4288 13.9445 13.9445C13.4288 14.4603 12.7293 14.75 12 14.75C11.2707 14.75 10.5712 14.4603 10.0555 13.9445C9.53973 13.4288 9.25 12.7293 9.25 12C9.25 11.2707 9.53973 10.5712 10.0555 10.0555C10.5712 9.53973 11.2707 9.25 12 9.25C12.7293 9.25 13.4288 9.53973 13.9445 10.0555Z" stroke="black" stroke-width="2" stroke-linecap="round" stroke-linejoin="round"/>
<path d="M9.75021 4.10011C9.75021 5.69454 7.72296 6.91564 6.29195 6.0912C3.73708 4.73233 1.79645 8.47451 4.0532 9.9756C5.4302 10.7689 5.43133 13.1756 4.0532 13.97C1.61983 15.4267 3.84058 19.1477 6.29195 17.8433C7.84333 16.95 9.75133 18.4122 9.75133 20.0166C9.75133 22.6955 14.2288 22.6266 14.2288 20.0166C14.2288 18.3822 16.1076 16.9333 17.6871 17.8433C20.2071 19.1844 22.3761 15.2744 19.9258 13.97C18.5466 13.1756 18.5477 10.7589 19.9258 9.9656C22.3592 8.50895 20.1396 4.78788 17.6871 6.0912C16.2887 6.89786 14.23 5.68787 14.2288 4.10011C14.2288 1.2557 9.75133 1.34458 9.75133 4.10011" stroke="black" stroke-width="2" stroke-linecap="round" stroke-linejoin="round"/>
</svg>

<svg xmlns="http://www.w3.org/2000/svg" width="24" height="24" viewBox="0 0 24 24" fill="none" stroke="currentColor" stroke-width="2" stroke-linecap="round" stroke-linejoin="round">
<path d="M13.945 10.056a2.75 2.75 0 1 1-3.889 3.888 2.75 2.75 0 0 1 3.889-3.889"/><path d="M9.75 4.1c0 1.595-2.027 2.816-3.458 1.991-2.555-1.359-4.496 2.384-2.239 3.885 1.377.793 1.378 3.2 0 3.994-2.433 1.457-.212 5.178 2.239 3.873 1.551-.893 3.46.57 3.46 2.174 0 2.678 4.477 2.61 4.477 0 0-1.635 1.879-3.084 3.458-2.174 2.52 1.341 4.69-2.569 2.239-3.873-1.38-.794-1.378-3.211 0-4.004 2.433-1.457.214-5.178-2.239-3.875-1.398.807-3.457-.403-3.458-1.99 0-2.845-4.478-2.756-4.478 0"/>
</svg>
